rospo-icon-theme-classic-common/64x64/apps/netsurf.svg

<svg height="64" viewBox="0 0 64 64" width="64" xmlns="http://www.w3.org/2000/svg"><path d="m46 8.7512899a28 28 0 0 0 -38.2487104 10.2487101 28 28 0 0 0 10.2487114 38.248712 28 28 0 0 0 38.248709-10.248712 28 28 0 0 0 -10.24871-38.2487101z" opacity=".2"/><path d="m46 7.7512888a28 28 0 0 0 -38.2487104 10.2487112 28 28 0 0 0 10.2487114 38.248712 28 28 0 0 0 38.248709-10.248712 28 28 0 0 0 -10.24871-38.2487112z" fill="#42b8fe"/><path d="m32.660156 4.0078125a28 28 0 0 0 -24.910156 13.9921875 28 28 0 0 0 -3.7050781 14.279297 28 28 0 0 1 3.7050781-13.279297 28 28 0 0 1 24.910156-13.9921875 28 28 0 0 1 13.339844 3.7421875 28 28 0 0 1 13.945312 24.195312 28 28 0 0 1  .007813.242188 28 28 0 0 0 -13.953125-25.4375 28 28 0 0 0 -13.339844-3.7421875z" fill="#fff" opacity=".2"/><path d="m26.721132 7.139029 1.350113 3.796569 3.639254-1.7299056-1.729906 3.6392536 3.796569 1.350113-3.796569 1.350113 1.729906 3.639253-3.639254-1.729906-1.350113 3.79657-1.350113-3.79657-3.639253 1.729906 1.729906-3.639254-3.79657-1.350112 3.79657-1.350113-1.729906-3.6392538 3.639254 1.7299058z" opacity=".2" transform="matrix(1.1325367 .87172576 -.87172576 1.1325367 22.111536 -16.369924)"/><path d="m26.721132 7.139029 1.350113 3.796569 3.639254-1.7299056-1.729906 3.6392536 3.796569 1.350113-3.796569 1.350113 1.729906 3.639253-3.639254-1.729906-1.350113 3.79657-1.350113-3.79657-3.639253 1.729906 1.729906-3.639254-3.79657-1.350112 3.79657-1.350113-1.729906-3.6392538 3.639254 1.7299058z" fill="#fff" transform="matrix(1.1325367 .87172576 -.87172576 1.1325367 22.111536 -17.369924)"/><g fill="none" stroke-linecap="round" stroke-linejoin="round" stroke-width="3"><path d="m17.5 7.4847354c-6 21.9999996 1.692192 38.4563076 17 53.9999996" opacity=".2" stroke="#000"/><path d="m17.5 6.5c-6 22 1.692192 38.456308 17 54" stroke="#3f3f3f"/><path d="m59.5 32.484735c-15.761826 15.681734-33 19-53 13" opacity=".2" stroke="#000"/><path d="m59.5 31.5c-15.761826 15.681734-33 19-53 13" stroke="#3f3f3f"/></g></svg>

<svg xmlns="http://www.w3.org/2000/svg" width="64" height="64" version="1.1" viewBox="0 0 64 64">
 <path style="opacity:0.2" d="M 46,8.7512899 A 28,28 0 0 0 7.7512896,19 28,28 0 0 0 18.000001,57.248712 28,28 0 0 0 56.24871,47 28,28 0 0 0 46,8.7512899 Z"/>
 <path style="fill:#42b8fe" d="M 46,7.7512888 A 28,28 0 0 0 7.7512896,18 28,28 0 0 0 18.000001,56.248712 28,28 0 0 0 56.24871,46 28,28 0 0 0 46,7.7512888 Z"/>
 <path style="opacity:0.2;fill:#ffffff" d="M 32.660156 4.0078125 A 28 28 0 0 0 7.75 18 A 28 28 0 0 0 4.0449219 32.279297 A 28 28 0 0 1 7.75 19 A 28 28 0 0 1 32.660156 5.0078125 A 28 28 0 0 1 46 8.75 A 28 28 0 0 1 59.945312 32.945312 A 28 28 0 0 1 59.953125 33.1875 A 28 28 0 0 0 46 7.75 A 28 28 0 0 0 32.660156 4.0078125 z"/>
 <path style="opacity:0.2" d="m 26.721132,7.139029 1.350113,3.796569 3.639254,-1.7299056 -1.729906,3.6392536 3.796569,1.350113 -3.796569,1.350113 1.729906,3.639253 -3.639254,-1.729906 -1.350113,3.79657 -1.350113,-3.79657 -3.639253,1.729906 1.729906,-3.639254 -3.79657,-1.350112 3.79657,-1.350113 -1.729906,-3.6392538 3.639254,1.7299058 z" transform="matrix(1.1325367,0.87172576,-0.87172576,1.1325367,22.111536,-16.369924)"/>
 <path style="fill:#ffffff" d="m 26.721132,7.139029 1.350113,3.796569 3.639254,-1.7299056 -1.729906,3.6392536 3.796569,1.350113 -3.796569,1.350113 1.729906,3.639253 -3.639254,-1.729906 -1.350113,3.79657 -1.350113,-3.79657 -3.639253,1.729906 1.729906,-3.639254 -3.79657,-1.350112 3.79657,-1.350113 -1.729906,-3.6392538 3.639254,1.7299058 z" transform="matrix(1.1325367,0.87172576,-0.87172576,1.1325367,22.111536,-17.369924)"/>
 <path style="opacity:0.2;fill:none;stroke:#000000;stroke-width:3;stroke-linecap:round;stroke-linejoin:round" d="m 17.5,7.4847354 c -6,21.9999996 1.692192,38.4563076 17,53.9999996"/>
 <path style="fill:none;stroke:#3f3f3f;stroke-width:3;stroke-linecap:round;stroke-linejoin:round" d="m 17.5,6.5 c -6,22 1.692192,38.456308 17,54"/>
 <path style="opacity:0.2;fill:none;stroke:#000000;stroke-width:3;stroke-linecap:round;stroke-linejoin:round" d="m 59.5,32.484735 c -15.761826,15.681734 -33,19 -53,13"/>
 <path style="fill:none;stroke:#3f3f3f;stroke-width:3;stroke-linecap:round;stroke-linejoin:round" d="m 59.5,31.5 c -15.761826,15.681734 -33,19 -53,13"/>
</svg>
